pro/src/icons/stroke-no-favorite.svg

<svg width="375" height="156" viewBox="0 0 375 156" xmlns="http://www.w3.org/2000/svg">
  <g id="icon">
    <path d="M12.1338 122C13.4042 122 14.4464 122.984 14.5468 124.234L14.5544 124.433L14.5544 129.752H19.8703C21.2122 129.752 22.3 130.838 22.3 132.176C22.3 133.446 21.3187 134.489 20.0696 134.59L19.8703 134.599L14.5544 134.598V140.886C14.5544 142.231 13.4712 143.32 12.1353 143.32C10.8634 143.32 9.82276 142.336 9.72235 141.087L9.71322 140.888V134.598H3.42972C2.08782 134.598 1 133.513 1 132.176C1 130.905 1.98132 129.862 3.23041 129.761L3.42972 129.754L9.71322 129.752L9.71322 124.433C9.71322 123.09 10.798 122 12.1338 122Z" fill="currentColor"/>
    <path d="M41 109.949C41 107.216 43.2137 105 45.9446 105C48.6756 105 50.8893 107.216 50.8893 109.949C50.8893 112.682 48.6756 114.898 45.9446 114.898C43.2137 114.898 41 112.682 41 109.949Z" fill="currentColor"/>
    <path d="M320.806 39.6194C320.681 38.0678 319.389 36.8496 317.813 36.8496C316.155 36.8496 314.81 38.2002 314.81 39.8661V46.4656H307.015L306.769 46.4763C305.219 46.6011 304 47.8954 304 49.4715C304 51.1312 305.351 52.4758 307.015 52.4758H314.811V60.2783L314.82 60.5249C314.945 62.0781 316.238 63.2963 317.813 63.2963C319.471 63.2963 320.815 61.9456 320.815 60.2783V52.4758L327.41 52.4773L327.657 52.4667C329.207 52.3418 330.426 51.049 330.426 49.4715C330.426 47.8117 329.075 46.4656 327.41 46.4656H320.816V39.8661L320.806 39.6194Z" fill="currentColor"/>
    <path d="M367.276 2.91407C367.185 1.84207 366.242 1 365.093 1C363.883 1 362.902 1.93343 362.902 3.08461V7.64366L357.218 7.64518L357.039 7.65127C355.908 7.73807 355.02 8.63191 355.02 9.72066C355.02 10.8673 356.004 11.7961 357.218 11.7961H362.902L362.904 17.1881L362.911 17.3587C363.003 18.4307 363.944 19.2727 365.093 19.2727C366.302 19.2727 367.282 18.3393 367.282 17.1866V11.7961L372.092 11.7977L372.273 11.7916C373.403 11.7048 374.292 10.8109 374.292 9.72066C374.292 8.57404 373.307 7.64366 372.092 7.64366L367.282 7.64366L367.284 3.08461L367.276 2.91407Z" fill="currentColor"/>
    <path d="M355.02 74.2051C355.02 71.4718 357.233 69.2562 359.964 69.2562C362.695 69.2562 364.909 71.4718 364.909 74.2051C364.909 76.9384 362.695 79.154 359.964 79.154C357.233 79.154 355.02 76.9384 355.02 74.2051Z" fill="currentColor"/>
    <path d="M184.189 14.0577C184.189 14.058 184.189 14.0573 184.189 14.0577L169.181 49.7595L169.177 49.7692C167.684 53.2897 164.37 55.7665 160.487 56.0866C160.484 56.0868 160.481 56.0871 160.478 56.0873L122.123 59.3982C119.099 59.6575 117.789 63.4942 120.152 65.552L149.256 90.9235C149.258 90.9257 149.261 90.9279 149.264 90.9301C152.174 93.4445 153.463 97.3996 152.584 101.156C152.583 101.158 152.583 101.159 152.583 101.161L143.851 138.906C143.851 138.907 143.851 138.905 143.851 138.906C143.135 142.034 146.456 144.287 149.001 142.745C149.002 142.745 149.001 142.745 149.001 142.745L182 122.732L182.02 122.72C185.335 120.74 189.442 120.74 192.757 122.72L192.777 122.732L225.775 142.745C225.775 142.745 225.775 142.744 225.775 142.745C228.312 144.282 231.643 142.013 230.927 138.911C230.927 138.911 230.927 138.911 230.927 138.911L222.194 101.161C222.194 101.16 222.193 101.158 222.193 101.157C221.308 97.3773 222.621 93.4753 225.494 90.9467L225.507 90.9359L254.626 65.5507C256.969 63.5131 255.658 59.6558 252.656 59.3984L242.668 58.5263C240.76 58.3597 239.35 56.6827 239.517 54.7804C239.684 52.8781 241.365 51.471 243.272 51.6375L253.249 52.5087C253.25 52.5087 253.248 52.5086 253.249 52.5087C262.445 53.2993 266.058 64.7784 259.185 70.7602M259.182 70.7628L230.081 96.132C230.079 96.1337 230.077 96.1355 230.075 96.1373C229.071 97.0246 228.654 98.3476 228.944 99.5849L228.947 99.5957L237.682 137.356C239.737 146.248 230.105 153.462 222.175 148.654L189.195 128.653C189.192 128.651 189.19 128.649 189.187 128.647C188.069 127.984 186.708 127.984 185.59 128.647C185.587 128.649 185.584 128.651 185.581 128.653L152.603 148.654C144.681 153.456 135.041 146.294 137.094 137.361L145.83 99.5957L145.833 99.5849C146.128 98.3252 145.687 96.987 144.723 96.1552L144.708 96.1428L115.593 70.7614C115.593 70.761 115.594 70.7619 115.593 70.7614C108.669 64.7303 112.351 53.297 121.525 52.5088C121.526 52.5088 121.525 52.5089 121.525 52.5088L159.897 49.1965L159.913 49.1952C161.155 49.0939 162.273 48.2958 162.79 47.0793C162.791 47.0781 162.791 47.0768 162.792 47.0756L177.797 11.3823C181.368 2.89664 193.398 2.84597 196.949 11.39C196.95 11.3925 196.951 11.395 196.952 11.3976L211.95 47.0756C211.951 47.0768 211.951 47.0781 211.952 47.0793C212.469 48.2958 213.587 49.0939 214.829 49.1952L214.851 49.1969L221.991 49.8246C223.898 49.9922 225.308 51.6701 225.14 53.5723C224.972 55.4745 223.29 56.8807 221.383 56.713L214.264 56.0873C214.26 56.087 214.256 56.0866 214.252 56.0863C210.37 55.7651 207.058 53.2887 205.565 49.7692L205.561 49.7595L190.552 14.0564L190.546 14.0411C189.379 11.2268 185.401 11.1806 184.189 14.0577" fill="currentColor"/>
  </g>
</svg>

<svg xmlns="http://www.w3.org/2000/svg" width="375" height="156"><g id="icon" fill="currentColor"><path d="M12.134 122c1.27 0 2.312.984 2.413 2.234l.007.199v5.319h5.316a2.427 2.427 0 0 1 2.43 2.424c0 1.27-.981 2.313-2.23 2.414l-.2.009-5.316-.001v6.288a2.426 2.426 0 0 1-2.419 2.434 2.425 2.425 0 0 1-2.413-2.233l-.009-.199v-6.29H3.43A2.426 2.426 0 0 1 1 132.176c0-1.271.981-2.314 2.23-2.415l.2-.007 6.283-.002v-5.319a2.43 2.43 0 0 1 2.42-2.433M41 109.949A4.947 4.947 0 0 1 45.945 105a4.947 4.947 0 0 1 4.944 4.949 4.947 4.947 0 0 1-4.944 4.949A4.947 4.947 0 0 1 41 109.949M320.806 39.62a3.01 3.01 0 0 0-2.993-2.77 3.01 3.01 0 0 0-3.003 3.016v6.6h-7.795l-.246.01A3.01 3.01 0 0 0 304 49.472a3.01 3.01 0 0 0 3.015 3.004h7.796v7.802l.009.247a3.01 3.01 0 0 0 2.993 2.771 3.01 3.01 0 0 0 3.002-3.018v-7.802l6.595.001.247-.01a3.01 3.01 0 0 0 2.769-2.995 3.01 3.01 0 0 0-3.016-3.006h-6.594v-6.6zM367.276 2.914C367.185 1.842 366.242 1 365.093 1c-1.21 0-2.191.933-2.191 2.085v4.559l-5.684.001-.179.006c-1.131.087-2.019.98-2.019 2.07 0 1.146.984 2.075 2.198 2.075h5.684l.002 5.392.007.17c.092 1.073 1.033 1.915 2.182 1.915 1.209 0 2.189-.934 2.189-2.086v-5.39h4.81l.181-.005c1.13-.087 2.019-.981 2.019-2.071 0-1.147-.985-2.077-2.2-2.077h-4.81l.002-4.56zM355.02 74.205a4.946 4.946 0 0 1 4.944-4.949 4.947 4.947 0 0 1 4.945 4.95 4.947 4.947 0 0 1-4.945 4.948 4.946 4.946 0 0 1-4.944-4.949M184.189 14.058 169.181 49.76l-.004.01c-1.493 3.52-4.807 5.996-8.69 6.317h-.009l-38.355 3.311c-3.024.26-4.334 4.096-1.971 6.154l29.104 25.371.008.007a10.41 10.41 0 0 1 3.32 10.226l-.001.005-8.732 37.745c-.716 3.128 2.605 5.381 5.15 3.839L182 122.732l.02-.012a10.45 10.45 0 0 1 10.737 0l.02.012 32.998 20.013c2.537 1.537 5.868-.732 5.152-3.834l-8.733-37.75-.001-.004c-.885-3.78.428-7.682 3.301-10.21l.013-.011 29.119-25.385c2.343-2.038 1.032-5.895-1.97-6.153l-9.988-.872a3.46 3.46 0 0 1-3.151-3.746 3.464 3.464 0 0 1 3.755-3.142l9.977.87c9.196.791 12.809 12.27 5.936 18.252m-.003.003-29.101 25.369-.006.005c-1.004.888-1.421 2.21-1.131 3.448l.003.01 8.735 37.761c2.055 8.892-7.577 16.106-15.507 11.298l-32.98-20.001-.008-.006a3.5 3.5 0 0 0-3.597 0l-.009.006-32.978 20.001c-7.922 4.802-17.562-2.36-15.509-11.293l8.736-37.765.003-.011a3.51 3.51 0 0 0-1.11-3.43l-.015-.012-29.115-25.382c-6.924-6.03-3.242-17.464 5.932-18.252l38.372-3.312.016-.002c1.242-.101 2.36-.9 2.877-2.116l.002-.003 15.005-35.694c3.571-8.485 15.601-8.536 19.152.008l.003.008 14.998 35.678.002.003c.517 1.217 1.635 2.015 2.877 2.116l.022.002 7.14.628a3.46 3.46 0 0 1 3.149 3.747 3.464 3.464 0 0 1-3.757 3.141l-7.119-.626h-.012c-3.882-.322-7.194-2.798-8.687-6.318l-.004-.01-15.009-35.703-.006-.015c-1.167-2.814-5.145-2.86-6.357.017"/></g></svg>
